X:38
T: L'alouette est sur la branche
R:---
Z:Transcrit et/ou corrig? par Michel BELLON - 2007-11-26
Z:Pour toute observation mailto:galouvielle@free.fr
M: 2/4
L: 1/8
K: Dm
V: 1
DA AF|G3 A|(FE) D2:| C>C DE|F2
w: L'a-lou-ette est sur la bran-*che, Faites un pe-tit saut,
G>F|EE FE|D2 C2| C>C DE|F2 G>F|EE FE|D2 z2|
w: L'a-lou-et-te, L'a-lou-et-te, Faites un pe-tit saut, L'a-lou-et-te comme il faut.
<end>
<start>
